dist/svgs/crypto-icons/icons/ftc.svg

<?xml version="1.0" encoding="UTF-8" standalone="yes"?>
<svg xmlns="http://www.w3.org/2000/svg" xmlns:xlink="http://www.w3.org/1999/xlink" width="512px" height="512px" viewBox="0 0 384 384" version="1.1">
  <g id="surface1">
    <path style=" stroke:none;fill-rule:nonzero;fill:rgb(0%,0%,0%);fill-opacity:1;" d="M 354.714844 0.0234375 C 351.128906 -1.03125 298.925781 30.941406 274.613281 49.378906 C 250.308594 67.8125 204.953125 103.78125 203.242188 107.535156 C 201.527344 111.289062 201.367188 118.058594 199.328125 135.105469 C 197.289062 152.152344 190.195312 159.578125 190.195312 159.578125 C 190.195312 159.578125 186.769531 156.96875 184.890625 151.417969 C 183.011719 145.871094 181.789062 130.371094 180.648438 130.050781 C 179.507812 129.722656 148.945312 158.191406 148.945312 158.191406 C 148.945312 158.191406 146.769531 172.433594 142.09375 200.714844 C 137.417969 228.996094 130.238281 240.820312 128.6875 240.984375 C 127.140625 241.148438 123.792969 230.054688 122.652344 218.796875 C 121.511719 207.539062 122.328125 180.867188 121.105469 180.050781 C 119.878906 179.234375 103.8125 196.148438 103.8125 196.148438 C 103.8125 196.148438 105.984375 216.269531 107.617188 242.589844 C 109.25 268.90625 106.75 286.988281 104.058594 288.703125 C 101.363281 290.414062 97.289062 283.96875 91.332031 269.855469 C 85.378906 255.746094 84.96875 244.574219 82.199219 243.59375 C 79.421875 242.613281 73.632812 256.398438 71.921875 270.105469 C 70.207031 283.804688 71.511719 304.609375 71.511719 304.609375 C 71.511719 304.609375 63.515625 289.765625 58.460938 282.011719 C 53.402344 274.265625 41.65625 258.765625 40.191406 259.90625 C 38.71875 261.050781 45.164062 273.609375 49.078125 284.789062 C 52.992188 295.964844 58.214844 312.523438 58.214844 312.523438 C 58.214844 312.523438 44.589844 299.226562 38.394531 294.820312 C 32.191406 290.414062 14.167969 280.21875 12.699219 283.402344 C 11.234375 286.582031 23.628906 295.964844 29.015625 301.34375 C 34.398438 306.726562 45.902344 319.042969 45.902344 319.042969 C 45.902344 319.042969 40.105469 325.082031 38.640625 333.320312 C 37.171875 341.558594 40.761719 349.304688 40.761719 349.304688 C 40.761719 349.304688 50.304688 329.566406 55.769531 329.242188 C 61.234375 328.917969 63.273438 340.09375 61.644531 347.429688 C 60.011719 354.773438 35.949219 380.007812 37.171875 383.40625 C 38.394531 386.804688 69.0625 354.554688 71.945312 348.410156 C 78.035156 355.808594 110.445312 368.421875 112.296875 367.765625 C 114.144531 367.117188 99.789062 357.222656 94.132812 351.890625 C 88.480469 346.5625 81.953125 330.792969 84.238281 328.726562 C 86.523438 326.660156 89.457031 339.273438 105.878906 347.214844 C 122.304688 355.15625 147.425781 356.894531 147.859375 355.804688 C 148.296875 354.714844 128.609375 348.847656 116.972656 341.449219 C 105.335938 334.054688 99.460938 318.71875 99.460938 318.71875 C 99.460938 318.71875 116.320312 322.089844 158.519531 324.375 C 200.71875 326.660156 227.253906 312.304688 227.253906 312.304688 C 227.253906 312.304688 190.273438 311.867188 166.242188 310.78125 C 142.203125 309.695312 107.730469 306.648438 107.730469 306.648438 C 107.730469 306.648438 116.835938 293.105469 141.09375 288.214844 C 165.339844 283.320312 204.203125 285.984375 207.679688 285.441406 C 211.160156 284.898438 266.953125 206.15625 266.953125 206.15625 C 266.953125 206.15625 232.476562 207.566406 234.867188 201.695312 C 240.1875 188.640625 269.996094 191.582031 274.457031 191.148438 C 278.914062 190.710938 292.835938 170.265625 309.152344 151.121094 C 325.464844 131.980469 370.058594 82.492188 372.339844 50.519531 C 374.621094 18.542969 358.308594 1.085938 354.714844 0.0234375 Z M 233.015625 174.179688 C 205.609375 206.589844 142.746094 269.234375 142.746094 269.234375 C 142.746094 269.234375 184.726562 212.027344 216.050781 175.265625 C 247.375 138.503906 310.453125 69.332031 310.453125 69.332031 C 310.453125 69.332031 260.421875 141.769531 233.015625 174.179688 Z M 233.015625 174.179688 "/>
  </g>
</svg>

<svg xmlns="http://www.w3.org/2000/svg" viewBox="0 0 384 384"><path d="M354.715.023c-3.586-1.054-55.79 30.918-80.102 49.356-24.304 18.434-69.66 54.402-71.37 58.156-1.716 3.754-1.876 10.524-3.915 27.57-2.039 17.047-9.133 24.473-9.133 24.473s-3.425-2.61-5.304-8.16c-1.88-5.547-3.102-21.047-4.243-21.367-1.14-.328-31.703 28.14-31.703 28.14s-2.175 14.243-6.851 42.524-11.856 40.105-13.406 40.27c-1.547.163-4.895-10.93-6.036-22.188-1.14-11.258-.324-37.93-1.547-38.746-1.226-.817-17.293 16.097-17.293 16.097s2.172 20.122 3.805 46.442c1.633 26.316-.867 44.398-3.558 46.113-2.696 1.711-6.77-4.734-12.727-18.848-5.953-14.109-6.363-25.28-9.133-26.261-2.777-.98-8.566 12.804-10.277 26.511-1.715 13.7-.41 34.504-.41 34.504s-7.996-14.843-13.051-22.597c-5.059-7.746-16.805-23.246-18.27-22.106-1.472 1.145 4.973 13.703 8.887 24.883 3.914 11.176 9.137 27.734 9.137 27.734s-13.625-13.296-19.82-17.703c-6.204-4.406-24.227-14.601-25.696-11.418-1.465 3.18 10.93 12.563 16.317 17.942 5.382 5.383 16.886 17.699 16.886 17.699s-5.797 6.039-7.261 14.277c-1.47 8.239 2.12 15.985 2.12 15.985s9.544-19.739 15.009-20.063c5.464-.324 7.503 10.852 5.875 18.188-1.633 7.343-25.696 32.578-24.473 35.976 1.223 3.399 31.89-28.851 34.773-34.996 6.09 7.399 38.5 20.012 40.352 19.356 1.848-.649-12.508-10.543-18.164-15.875-5.653-5.329-12.18-21.098-9.895-23.164 2.285-2.067 5.219 10.546 21.64 18.488 16.427 7.941 41.548 9.68 41.981 8.59.438-1.09-19.25-6.957-30.886-14.356-11.637-7.394-17.512-22.73-17.512-22.73s16.86 3.37 59.059 5.656c42.199 2.285 68.734-12.07 68.734-12.07s-36.98-.438-61.012-1.524c-24.039-1.086-58.512-4.133-58.512-4.133s9.106-13.543 33.364-18.433c24.246-4.895 63.11-2.23 66.586-2.774 3.48-.543 59.273-79.285 59.273-79.285s-34.476 1.41-32.086-4.46c5.32-13.055 35.13-10.114 39.59-10.548 4.457-.437 18.379-20.882 34.695-40.027 16.313-19.14 60.907-68.629 63.188-100.601 2.28-31.977-14.031-49.434-17.625-50.497zm-121.7 174.157c-27.406 32.41-90.269 95.054-90.269 95.054s41.98-57.207 73.305-93.968c31.324-36.762 94.402-105.934 94.402-105.934s-50.031 72.438-77.437 104.848zm0 0"/></svg>
